/*
	Copyright (c) 2006 soho vfx inc.
	Copyright (c) 2006-2018 The 3Delight Team.
*/

#ifndef __makexform_osl
#define __makexform_osl

shader makexform
(
	string space = "world",
	output matrix worldInverseMatrix[1] = {matrix("world", 1)/matrix(space, 1)} )
{
}

#endif

